X:271
T: GEH AUS MEIN HERZ UND SUCHE FREUD
N: B0749
O: Europa, Mitteleuropa, Deutschland
R: Jahreszeiten - Lied, Sommer, religioes
M: 4/4
L: 1/8
K: F
C2 | A3GBAGF | E3FG2
C2 | B3AcBAG | A2dcc2
A2 | G3ccBA=B | d4c2
c2 | e3cf2A2 | c3BA2
c2 | e3cf2A2 | c3BA2
A2 | G3dc2E2 | G4F2

@@@ Tune index: 2489
